X:1
T:Sechs Lieder, Op.25
T:Winterseufzer
T:2. Winterseufzer
T:Josephine Lang
T:Sechs Lieder, Op.25
T:partly by August von Platen 
T:OpenScore (CC0)
T:OpenScore (CC0)
T:OpenScore (CC0)
T:OpenScore (CC0)
C:Josephine Lang
Z:partly by August von Platen
Z:OpenScore (CC0)
%%score 1 { 2 | ( 3 4 ) }
L:1/8
Q:1/4=112
M:2/4
K:A
V:1 treble nm="Voice"
V:2 treble nm="Pianoforte"
V:3 bass 
V:4 bass 
V:1
"^Allegro" z4 | z4 | z4 | z4 | z4 | z4 | z4 | z4 | z4 | z4 | z4 |:SSS z2!p! E2 | A2 G2 | A2 z G | %14
w: |||||||||||1.  Der|Him- mel|ist so|
w: |||||||||||2.  Wie|ist der|Tag so|
w: |||||||||||3.  Es|schläft das|Thal im|
 A2 B2 | c2 z c | (d2 c) c | (B3 A) | B4 | z2 E2 |!<(! A2!<)! G3/2 G/ |"^cresc." A z B2 | =c2 d2 | %23
w: hell und|blau, o|wär' _ die|Er- de|grün!|Der|Wind weht so|scharf, o|wär' er|
w: fro- stig|klar, o|schien _ die|Son- ne|warm!|Der|ei- si- ge|Nord, wär's|Ze- phir-|
w: Fei- er-|kleid, o|wann _ er-|wacht der|Lenz?|Der|See ist er-|starrt, o|spielt' die|
 e2 z!p! e |[Q:1/4=106]"^dim." e4- |[Q:1/4=100] e2 ^d2 |[Q:1/4=96] c4 | %27
w: lau, o|wär'|_ er|lau!|
w: luft, wär's|Ze-|* phir-|luft!|
w: Well', o|spiel-|te die|Well'!|
 z2"^a tempo"[Q:1/4=112] z c |!pp! c2 B3/2 B/ | A2 z B | c2 d2 | e2 z A |!p! (f4 | d3)"^cresc." B | %34
w: Es|schim- mert der|Schnee, o|wär' es|Thau, o|wär'|_ es|
w: Der|Ne- * bel-|hauch, wär's|Blü- then-|duft, wär's|Blü-|* then-|
w: Der|Vo- gel ver-|stummt, o|säng' er|hell! o|säng'|_ er|
 G4- | G z E2 | E3 F | G2 A2 | B2 z"^cresc." c | d2 e2 | f4- |!>(! (f2 G)!>)! G | A4 | z4 | %44
w: Thau!|_ o|wär' die|Er- de|grün, o|wär' die|Er-|* * de|grün!||
w: duft,|_ o|schien die|Son- ne|warm, o|schien die|Son-|* * ne|warm!||
w: hell!|_ o|wann er-|wacht der|Lenz, wann|wird die|Er-|* * de|grün!||
 z4[Q:1/4=108] | z4[Q:1/4=106] | z4[Q:1/4=104] | z4[Q:1/4=102] | z4[Q:1/4=112] | z4 | z4 | z4 | %52
w: ||||||||
w: ||||||||
w: ||||||||
 z4 | z4 | z4 :|SS[Q:1/4=100] z4[Q:1/4=90] |[Q:1/4=80] z4 |] %57
w: |||||
w: |||||
w: |||||
V:2
!p! z/ (C/A/C/ z/ e/[ae']/e/ | z/ c/[ec']/c/ z/ A/[ca]/A/ | %2
 z/ E/!<(![Ae]/E/) z/"_cresc." D/[Gce]/D/!<)! | z/!>(! D/[Gce]/D/ z/ D/!>)![GBe]/D/ | %4
 z/ C/A/C/ z/!p!!8va(! a/[c'a']/a/ | z/ e/[ae']/e/ z/ c/[ec']/c/!8va)! | %6
 z/"^loco" A/!<(![ca]/A/ z/"_cresc." D/[Gce]/D/!<)! | z/!>(! D/[Gce]/D/ z/ D/!>)![GBe]/D/ | %8
 z/ C/A/C/!p! z/ C/c/C/ | z/ C/A/C/ z/ (C/c/C/ | A/E/e/E/!pp! e/!<(!E/e/E/!<)! |: %11
 e/E/e/E/) z/ E/!p!e/E/ | z/ E/e/E/ z/ E/e/E/ | z/ E/e/E/ z/ E/e/E/ | z/ E/e/E/ z/ E/e/E/ | %15
 z/ E/e/E/ z/ E/e/E/ | z/ E/e/E/ z/ E/e/E/ | z/ E/e/E/ z/ E/e/E/ | z/ E/e/E/!p! z/ B/!<(![eb]/B/ | %19
 z/ e/[ge']/e/ z/!<)!!mp! E/e/E/ |!f! z/ E/e/E/ z/ E/e/E/ | z/!<(! E/e/E/ z/ =G/!<)!=g/G/ | %22
"_cresc." z/ =G/=g/G/ z/ G/g/G/ | z/ =G/=g/G/!mf! z/ G/!mp!g/!p!G/ | %24
!pp!"_dim." z/ ^G/^c/g/ z/ c/g/c'/ | z/ G/^B/^d/ z/ B/d/^b/ | %26
 z/ c/[gc']/c/!pp! z/!8va(! g/[c'g']/g/ | z/ e/[gc'e']/e/"^a tempo" z/ c/[egc']/c/!8va)! | %28
!pp! z/"^loco" =A/a/A/ z/ A/a/A/ | z/ A/a/A/ z/ A/a/A/ | z/ A/a/A/ z/ A/a/A/ | %31
 z/ A/a/A/ z/ A/a/A/ | z/ A/[dfa]/A/ z/!8va(! a/[d'a']/a/ | z/ f/[af']/f/ z/ d/[fd']/d/ | %34
 z/ B/[egb]/B/!f! z/!<(! b/[e'g'b']/b/ | z/!<)!!f! g/[be'g']/g/!>(! z/ e/[gbe']/e/!>)! | %36
!p!!<(! z/ a/[e'a']/a/!8va)!!<)!!p! z/"^loco" E/e/E/ | z/ E/e/E/ z/ E/e/E/ | %38
!<(! z/ ^E/^e/E/!<)! z/!>(! E/[Bce]/E/!>)! |"_cresc." z/ F/[Acf]/F/ z/ A/[cfa]/A/ | %40
!f! z/ A/[Bfa]/A/!>(! z/ A/[Bfa]/A/ | z/ G/[Bdg]/G/!>)! z/ d/[gd']/d/ | %42
 z/ c/[eac']/c/!f! z/ e/[ac'e']/e/ | z/ c/[ec']/c/ z/ A/[ca]/A/ | %44
 z/ E/[Ae]/E/!f! z/"^riten."!<(! D/[Gce]/D/ | z/ D/!<)![Gce]/!>(!D/ z/ D/[GBe]/D/!>)! | %46
 z/ C/[Ae]/C/!f! z/!8va(! a/[c'a']/a/ | z/ e/[ae']/e/ z/ c/[ec']/c/!8va)! | %48
 z/"^loco" A/[ca]/A/ z/!f! D/!<(![Gce]/D/ | z/ D/[Gce]/D/ z/ D/!<)![GBe]/D/ | %50
 z/!<(! C/A/C/ z/!pp!!<(! D/!<)!!<)![Gce]/!>(!D/!>)! | z/!>(! D/[Gce]/D/ z/ D/[GBe]/D/ | %52
 z/ C/A/C/ z/!pp! C/c/!>)!C/ | z/ C/A/C/ z/ C/c/C/ | A/!<(!E/e/E/ e/E/e/!p!E/!<)! :| %55
 e/!>(!E/e/E/ e/E/e/E/!>)! | !arpeggio!!fermata![Aa]2 z2 |] %57
V:3
"^leggiero     e      piano" [A,,E,]2[K:treble] c z | A z E z | C z[K:bass] E,2 | E,,2 (E,2 | %4
 A,,) z[K:treble] e z | c z A z | E z[K:bass] E,2 | E,, z (E,2 | A,,) z E,2 | A,,2 E,2 | %10
 A,, z!ped! E,2- |: E,2!ped-up! E,2 | !arpeggio!C z ^B,2 | C z ^B,2 | %14
 !arpeggio![A,,E,C] z [E,=B,]2 | [C,A,]2 [A,C]2 | [B,D]2 [A,C]2 | [G,B,]2 [F,A,]2 | %18
 [E,G,B,]2[K:treble] G2 | B2[K:bass] E,2 |!mp! =C2 B,>B, | [A,,E,=C]2 [=G,=D]2 | [=CE]2 [=G,D]2 | %23
 =C2 C2 |[K:treble] E2 ^G2 | ^D2 F2 | [CE]2 e2 | c2 G2 | [E=G]2 [=DG]>[DG] | [C=G]2 [DG]2 | %30
 [E=G]2 [DG]2 | [D=G]2 A,2 |[K:bass] D,2 F,2 | A,2 D2 | D,2 E,2 | G,2 B,2 | C,2 E,2 | A,2 C2 | %38
 G,2 C2 | A,2 F,2 | [D,,D,]2 [B,,,B,,]2 | [E,,E,]2 E,2 | A,,2[K:treble] c2 | A2 E2 | %44
 C z[K:bass] E,2- | [E,,E,]2 E,2 | A,,2[K:treble] e2 | c2 A2 | E z[K:bass] E,2 | E,,2 E,2 | %50
 A,, z E,2 | E,,2 E,2 | A,, z E,2 | A,, z E,2 | A,,2 E,2 :| z4 | !arpeggio!!fermata![A,,E,C]2 z2 |] %57
V:4
 x2[K:treble] x2 | x4 | x2[K:bass] x2 | x4 | x2[K:treble] x2 | x4 | x2[K:bass] x2 | x4 | x4 | x4 | %10
 x4 |: x4 | [A,,E,]4 | [A,,E,]4 | x4 | x4 | E,4 | E,4 | x2[K:treble] x2 | x2[K:bass] x2 | %20
 [A,,E,]4 | x4 | x4 | E,4 |[K:treble] ^G,4 | G,4 | x4 | x4 | A,4 | A,4 | A,4 | x4 |[K:bass] x4 | %33
 x4 | D,4- | D,4 | C,4- | C,4 | G,4 | x4 | x4 | x4 | x2[K:treble] x2 | x4 | x2[K:bass] x2 | x4 | %46
 x2[K:treble] x2 | x4 | x2[K:bass] x2 | x4 | x4 | x4 | x4 | x4 | x4 :| x4 | x4 |] %57

